X: 4
T: The Lisnagun Jig
M: 6/8
L: 1/8
R: jig
K: Gmaj
|: GED GFG | ABd B3 | ABd BAG | AGE GED |
GED GFG | ABd B3 | ABd BAG | AGE G3 :|
|: ded BAG | ABd B3 | ABd BAG | AGE GED |
[1 ded BAG | ABd B3 | ABd BAG | AGE G3 :|
[2 GED GFG | ABd B3 | ABd BAG | AGE G3 |]
